packages/ffe-icons/icons/open/400/sm/settop_component.svg

<svg xmlns="http://www.w3.org/2000/svg" height="20" viewBox="0 -960 960 960" width="20"><path d="M168-288q-29.7 0-50.85-21.15Q96-330.3 96-360v-240q0-29.7 21.15-50.85Q138.3-672 168-672h624q29.7 0 50.85 21.15Q864-629.7 864-600v240q0 29.7-21.15 50.85Q821.7-288 792-288H168Zm0-72h624v-240H168v240Zm84-84h192q15.3 0 25.65-10.29Q480-464.58 480-479.79t-10.35-25.71Q459.3-516 444-516H252q-15.3 0-25.65 10.29Q216-495.42 216-480.21t10.35 25.71Q236.7-444 252-444Zm335.79 0q15.21 0 25.71-10.29t10.5-25.5q0-15.21-10.29-25.71t-25.5-10.5q-15.21 0-25.71 10.29t-10.5 25.5q0 15.21 10.29 25.71t25.5 10.5Zm120 0q15.21 0 25.71-10.29t10.5-25.5q0-15.21-10.29-25.71t-25.5-10.5q-15.21 0-25.71 10.29t-10.5 25.5q0 15.21 10.29 25.71t25.5 10.5ZM168-360v-240 240Z"/></svg>

<svg xmlns="http://www.w3.org/2000/svg" height="20" viewBox="0 -960 960 960" width="20"><path d="M168-288q-29.7 0-50.85-21.15Q96-330.3 96-360v-240q0-29.7 21.15-50.85Q138.3-672 168-672h624q29.7 0 50.85 21.15Q864-629.7 864-600v240q0 29.7-21.15 50.85Q821.7-288 792-288H168Zm0-72h624v-240H168v240Zm84-84h192q15.3 0 25.65-10.289 10.35-10.29 10.35-25.5Q480-495 469.65-505.5 459.3-516 444-516H252q-15.3 0-25.65 10.289-10.35 10.29-10.35 25.5Q216-465 226.35-454.5 236.7-444 252-444Zm335.789 0Q603-444 613.5-454.289q10.5-10.29 10.5-25.5Q624-495 613.711-505.5q-10.29-10.5-25.5-10.5Q573-516 562.5-505.711q-10.5 10.29-10.5 25.5Q552-465 562.289-454.5q10.29 10.5 25.5 10.5Zm120 0Q723-444 733.5-454.289q10.5-10.29 10.5-25.5Q744-495 733.711-505.5q-10.29-10.5-25.5-10.5Q693-516 682.5-505.711q-10.5 10.29-10.5 25.5Q672-465 682.289-454.5q10.29 10.5 25.5 10.5ZM168-360v-240 240Z"/></svg>
